assets/images/script/t-6-e2.svg

<svg fill="none" height="153" viewBox="0 0 317 153" width="317" xmlns="http://www.w3.org/2000/svg"><path d="m66.7918 146.319c-2.7087-7.223 4.2803-1.303 9.8127-.074 18.0326 4.007 37.8685 3.657 55.4565-2.156 11.354-3.753 31.127-12.225 30.554-27.134-.508-13.186-18.572-14.681-28.324-13.604-11.311 1.25-24.373 9.649-17.32 22.302 10.291 18.464 37.624 21.59 56.274 23.045 24.592 1.919 53.957 2.836 77.461-6.17 15.207-5.827 33.035-19.058 22.302-36.946-10.323-17.2047-32.166-25.9402-49.956-32.5609-28.499-10.6063-58.619-16.0919-88.761-19.4768-32.807-3.6843-67.2579-2.8928-99.7623 3.1223-10.126 1.8738-39.30947 11.8857-29.14085 10.2587 4.22639-.6762 8.35395-3.214 12.19155-4.9063 12.8673-5.6744 26.2593-10.0195 39.697-14.1244 41.5969-12.7069 84.6216-20.7823 127.4916-27.8028 38.126-6.2436 76.498-10.75176 114.853-15.31377.251-.02981 21.495-1.63545 12.043-1.63545" stroke="#000" stroke-linecap="round" stroke-width="5"/></svg>

<svg width="317" height="153" viewBox="0 0 317 153" fill="none" xmlns="http://www.w3.org/2000/svg">
<path d="M66.7918 146.319C64.0831 139.096 71.0721 145.016 76.6045 146.245C94.6371 150.252 114.473 149.902 132.061 144.089C143.415 140.336 163.188 131.864 162.615 116.955C162.107 103.769 144.043 102.274 134.291 103.351C122.98 104.601 109.918 113 116.971 125.653C127.262 144.117 154.595 147.243 173.245 148.698C197.837 150.617 227.202 151.534 250.706 142.528C265.913 136.701 283.741 123.47 273.008 105.582C262.685 88.3773 240.842 79.6418 223.052 73.0211C194.553 62.4148 164.433 56.9292 134.291 53.5443C101.484 49.86 67.0331 50.6515 34.5287 56.6666C24.4027 58.5404 -4.78077 68.5523 5.38785 66.9253C9.61424 66.2491 13.7418 63.7113 17.5794 62.019C30.4467 56.3446 43.8387 51.9995 57.2764 47.8946C98.8733 35.1877 141.898 27.1123 184.768 20.0918C222.894 13.8482 261.266 9.34004 299.621 4.77803C299.872 4.74822 321.116 3.14258 311.664 3.14258" stroke="black" stroke-width="5" stroke-linecap="round"/>
</svg>
